Obsidian-SemiLight/actions/22s/formula.svg

<svg viewBox="0 0 22 22" xmlns="http://www.w3.org/2000/svg"><path d="m13.220703 3-3.5917968 13.408203-2.5449218-4.408203h-.0839844-4v1h3.5058594l3.4648437 6 4.0292969-15.0371094v.0371094h5v-1h-4.742188-.257812z" fill="#4d4d4d"/></svg>

<svg xmlns="http://www.w3.org/2000/svg" viewBox="0 0 22 22">
  <defs id="defs3051">
    <style type="text/css" id="current-color-scheme">
      .ColorScheme-Text {
        color:#4d4d4d;
      }
      </style>
  </defs>
 <path 
    style="fill:currentColor;fill-opacity:1;stroke:none" 
    d="M 13.220703 3 L 9.6289062 16.408203 L 7.0839844 12 L 7 12 L 3 12 L 3 13 L 6.5058594 13 L 9.9707031 19 L 14 3.9628906 L 14 4 L 19 4 L 19 3 L 14.257812 3 L 14 3 L 13.220703 3 z "
    class="ColorScheme-Text"
    />  
</svg>
